X: 23
T:Green Grow the Rashes. JMP.023
M:2/4
L:1/8
Q:200
C:"24...A Quick March"
S:John Miller MS. Perth, 1799.(for the fife)
R:March
O:Scotland
A:Perth
H:1799
Z:vmp.C. Graebe
K:G Major
B | G/G/G B>A | BGGB | A/A/A e>d | eAAB |!
 c>Bce | d/c/B/A/ BG | A/A/A B>A | GE E:|!
|:B | G/G/G g>f | gddg | e/e/e a>g | aeeg |!
 g>age | d/c/B/A/ BG | A/A/A B>A | GE E :|]
